X:27
T:Bohemian Polka (the)
R:polka 32
M:2/4
L:1/16
Q:1/4=120
K:G
|:G2D2 B2AG|F2A2 D4|A2D2 c2BA|d4 g2z2|
G2D2 B2AG|F2A2 D4|A2D2 c2BA|G2GG G4:|
|:e2c2 g2fe|d2g2 G4|c2A2 e2dc|B2d2 G4|
e2c2 g2fe|d2g2 G4|A2Ad ^c2ce|d2fe dBcA:|]

